icons/actions/32/align-horizontal-center.svg

<svg xmlns="http://www.w3.org/2000/svg" viewBox="0 0 32 32">
  <defs id="defs3051">
    <style type="text/css" id="current-color-scheme">
      .ColorScheme-Text {
        color:#4d4d4d;
      }
      </style>
  </defs>
 <path style="fill:currentColor;fill-opacity:1;stroke:none" 
       d="m15 4v2h-4v8h4v4h-8v8h8v2h2v-2h8v-8h-8v-4h4v-8h-4v-2zm-3 3h8v6h-8zm-4 12h16v6h-16z"
     class="ColorScheme-Text"
     />
</svg>

<?xml version="1.0"?>
<!-- Created with Inkscape (http://www.inkscape.org/) -->
<svg xmlns:dc="http://purl.org/dc/elements/1.1/" xmlns:cc="http://creativecommons.org/ns#" xmlns:rdf="http://www.w3.org/1999/02/22-rdf-syntax-ns#" xmlns:svg="http://www.w3.org/2000/svg" xmlns="http://www.w3.org/2000/svg" xmlns:sodipodi="http://sodipodi.sourceforge.net/DTD/sodipodi-0.dtd" xmlns:inkscape="http://www.inkscape.org/namespaces/inkscape" width="32" height="32" id="svg5453" version="1.1" inkscape:version="0.91 r13725" sodipodi:docname="align-horizontal-center.svg" viewBox="0 0 32 32">
  <defs id="defs5455">
    <style type="text/css" id="current-color-scheme">
      .ColorScheme-Text {
        color:#4d4d4d;
      }
      .ColorScheme-Background {
        color:#eff0f1;
      }
      .ColorScheme-Highlight {
        color:#3daee9;
      }
      .ColorScheme-ViewText {
        color:#31363b;
      }
      .ColorScheme-ViewBackground {
        color:#fcfcfc;
      }
      .ColorScheme-ViewHover {
        color:#93cee9;
      }
      .ColorScheme-ViewFocus{
        color:#3daee9;
      }
      .ColorScheme-ButtonText {
        color:#31363b;
      }
      .ColorScheme-ButtonBackground {
        color:#eff0f1;
      }
      .ColorScheme-ButtonHover {
        color:#93cee9;
      }
      .ColorScheme-ButtonFocus{
        color:#3daee9;
      }
      </style>
  </defs>
  <sodipodi:namedview id="base" pagecolor="#ffffff" bordercolor="#666666" borderopacity="1.0" inkscape:pageopacity="0" inkscape:pageshadow="2" inkscape:zoom="16.333329" inkscape:cx="25.883008" inkscape:cy="18.060722" inkscape:document-units="px" inkscape:current-layer="layer1" showgrid="true" fit-margin-top="0" fit-margin-left="0" fit-margin-right="0" fit-margin-bottom="0" inkscape:window-width="1920" inkscape:window-height="957" inkscape:window-x="-4" inkscape:window-y="0" inkscape:window-maximized="1" inkscape:showpageshadow="false" borderlayer="true" showguides="true" inkscape:guide-bbox="true" inkscape:object-nodes="true" inkscape:snap-bbox="true" inkscape:snap-global="true">
    <inkscape:grid type="xygrid" id="grid4063"/>
    <sodipodi:guide position="4,24" orientation="28,0" id="guide4280"/>
    <sodipodi:guide position="13,4" orientation="0,28" id="guide4282"/>
    <sodipodi:guide position="28,25" orientation="-28,0" id="guide4284"/>
    <sodipodi:guide position="15,28" orientation="0,-28" id="guide4286"/>
  </sodipodi:namedview>
  <metadata id="metadata5458">
    <rdf:RDF>
      <cc:Work rdf:about="">
        <dc:format>image/svg+xml</dc:format>
        <dc:type rdf:resource="http://purl.org/dc/dcmitype/StillImage"/>
        <dc:title/>
      </cc:Work>
    </rdf:RDF>
  </metadata>
  <g inkscape:label="Capa 1" inkscape:groupmode="layer" id="layer1" transform="translate(-384.57143,-515.798)">
    <path style="fill:currentColor;fill-opacity:1;stroke:none;stroke-width:2;stroke-linecap:butt;stroke-linejoin:round;stroke-miterlimit:4;stroke-dasharray:none" d="M 15 4 L 15 6 L 11 6 L 11 14 L 15 14 L 15 18 L 7 18 L 7 26 L 15 26 L 15 28 L 17 28 L 17 26 L 25 26 L 25 18 L 17 18 L 17 14 L 21 14 L 21 6 L 17 6 L 17 4 L 15 4 z M 12 7 L 15 7 L 17 7 L 20 7 L 20 13 L 17 13 L 15 13 L 12 13 L 12 7 z M 8 19 L 24 19 L 24 25 L 8 25 L 8 19 z " transform="translate(384.57143,515.798)" id="rect4324" class="ColorScheme-Text"/>
  </g>
</svg>
